packages/katcn/src/icons/svg/openBook.svg

<svg width="24" height="25" viewBox="0 0 24 25" fill="none" xmlns="http://www.w3.org/2000/svg">
<path fill-rule="evenodd" clip-rule="evenodd" d="M4.7 6.20801C3.72764 6.20801 3 6.98462 3 7.80801V16.608C3 17.4314 3.72764 18.208 4.7 18.208H12C12.5523 18.208 13 18.6557 13 19.208C13 19.7603 12.5523 20.208 12 20.208H4.7C2.67236 20.208 1 18.5846 1 16.608V7.80801C1 5.8314 2.67236 4.20801 4.7 4.20801H7.4C10.5231 4.20801 13 6.62694 13 9.60801C13 10.1603 12.5523 10.608 12 10.608C11.4477 10.608 11 10.1603 11 9.60801C11 7.78908 9.47694 6.20801 7.4 6.20801H4.7Z" fill="black"/>
<path fill-rule="evenodd" clip-rule="evenodd" d="M16.5 6.20801C14.5376 6.20801 13 7.77485 13 9.60801V16.608C13 17.1603 12.5523 17.608 12 17.608C11.4477 17.608 11 17.1603 11 16.608V9.60801C11 6.64116 13.4624 4.20801 16.5 4.20801H19.2C21.3033 4.20801 23 5.80801 23 7.80801V16.608C23 18.5846 21.3276 20.208 19.3 20.208H12C11.4477 20.208 11 19.7603 11 19.208C11 18.6557 11.4477 18.208 12 18.208H19.3C20.2724 18.208 21 17.4314 21 16.608V7.80801C21 7.00801 20.2967 6.20801 19.2 6.20801H16.5Z" fill="black"/>
</svg>

<svg xmlns="http://www.w3.org/2000/svg" fill="none" viewBox="0 0 24 25"><path fill="#000" fill-rule="evenodd" d="M4.7 6.208c-.972 0-1.7.777-1.7 1.6v8.8c0 .823.728 1.6 1.7 1.6H12a1 1 0 1 1 0 2H4.7c-2.028 0-3.7-1.623-3.7-3.6v-8.8c0-1.977 1.672-3.6 3.7-3.6h2.7c3.123 0 5.6 2.419 5.6 5.4a1 1 0 1 1-2 0c0-1.819-1.523-3.4-3.6-3.4z" clip-rule="evenodd"/><path fill="#000" fill-rule="evenodd" d="M16.5 6.208c-1.962 0-3.5 1.567-3.5 3.4v7a1 1 0 1 1-2 0v-7c0-2.967 2.462-5.4 5.5-5.4h2.7c2.103 0 3.8 1.6 3.8 3.6v8.8c0 1.977-1.672 3.6-3.7 3.6H12a1 1 0 1 1 0-2h7.3c.972 0 1.7-.777 1.7-1.6v-8.8c0-.8-.703-1.6-1.8-1.6z" clip-rule="evenodd"/></svg>
